dist/assets/img/icons/social/Facebookr.svg

<svg width="20" height="20" viewBox="0 0 20 20" fill="none" xmlns="http://www.w3.org/2000/svg">
<path d="M17.0698 0L2.9292 0C1.3139 0 -0.000488281 1.31439 -0.000488281 2.92969L-0.000488281 17.0703C-0.000488281 18.6856 1.3139 20 2.9292 20L8.82764 20L8.82764 12.9297L6.48389 12.9297L6.48389 9.41406L8.82764 9.41406L8.82764 7.03125C8.82764 5.09262 10.4046 3.51563 12.3433 3.51563L15.8979 3.51563L15.8979 7.03125L12.3433 7.03125L12.3433 9.41406L15.8979 9.41406L15.312 12.9297L12.3433 12.9297L12.3433 20L17.0698 20C18.6851 20 19.9995 18.6856 19.9995 17.0703L19.9995 2.92969C19.9995 1.31439 18.6851 0 17.0698 0Z" fill="white"/>
</svg>

<svg width="20" height="20" fill="none" xmlns="http://www.w3.org/2000/svg"><path d="M17.07 0H2.93A2.933 2.933 0 000 2.93v14.14A2.933 2.933 0 002.93 20h5.898v-7.07H6.484V9.414h2.344V7.031a3.52 3.52 0 013.515-3.515h3.555V7.03h-3.555v2.383h3.555l-.586 3.516h-2.969V20h4.727A2.933 2.933 0 0020 17.07V2.93A2.933 2.933 0 0017.07 0z" fill="#fff"/></svg>
